X:1
T:Star Above the Garter
R:Jig
M:6/8
%%printtempo 0
Q:180
K:G
Bc|\
"G"d2B BAG|"D"A3 ABA|"C"G2E c2B|"D"BAG ABc|
"G"d2B BAG|"D"A3 ABA|"C"GFE cGE |1"D"DED D:|2 "D"DED D3||
|:"D"d2e fga|gfe d2B|"C"G2B c2B|"G"BAG "D"A3|
"D"d2e fga|gfe d2B|"C"GAB cGE|1"D"DED D3:|2"D"DED D|]
